static/images/plans/wpcom/plan-free-circle.svg

<svg height="72" viewBox="0 0 72 72" width="72" xmlns="http://www.w3.org/2000/svg" xmlns:xlink="http://www.w3.org/1999/xlink"><defs><circle id="a" cx="36" cy="36" r="36"/><path id="b" d="m0 0h29l3.1532462 1.57662312c.3704839.18524194.5206522.63574672.3354102 1.00623059-.127141.25428215-.3871268.41481794-.6714228.41458956l-31.8172336-.02555891z"/><path id="c" d="m10.8024361 56.4035209c3.2321181-6.4657274 5.1323321-10.266901 5.700642-11.4035209 1-2 1.5015391-3 1.5015391-5s0-15.2738488 0-39.82154639h-17.99999999v39.82154639c0 2 .56646126 3 1.56646126 5 .56810529 1.1362106 2.45144051 4.9350559 5.65000567 11.3965361l-.00000487.0000024c.49003244.9899236 1.68977382 1.3951653 2.67969736.9051329.39032987-.1932213.70691767-.5085771.90165947-.8981505z"/><mask id="d" fill="#fff"><use fill="#fff" fill-rule="evenodd" xlink:href="#a"/></mask><mask id="e" fill="#fff"><use fill="#fff" fill-rule="evenodd" xlink:href="#b"/></mask><mask id="f" fill="#fff"><path d="m0 0h72v72h-72z" fill="#fff" fill-rule="evenodd"/></mask><mask id="g" fill="#fff"><use fill="#fff" fill-rule="evenodd" xlink:href="#c"/></mask></defs><g fill="none" fill-rule="evenodd"><use fill="#969ca1" fill-rule="nonzero" xlink:href="#a"/><g mask="url(#d)"><g fill-rule="evenodd" transform="translate(-4 53)"><use fill="#b0b5b8" xlink:href="#b"/><path d="m0 0h40v1h-40z" fill="#ccced0" mask="url(#e)"/></g></g><g mask="url(#d)"><g fill="none" fill-rule="evenodd" mask="url(#f)" transform="matrix(.8660254 .5 -.5 .8660254 22.820007 -13.176915)"><g transform="translate(27 -2)"><use fill="#fff" fill-rule="evenodd" xlink:href="#c"/><g fill-rule="nonzero"><path d="m-5-2h28v44h-28z" fill="#e1e2e2" mask="url(#g)"/><path d="m-5 0h28v38h-28z" fill="#50575d" mask="url(#g)"/><path d="m9.00307814 22c-4 0-4-10.2974508-4-23 0-8.46836616 0-16.1350328 0-23h7.99999996v23c0 12.7025492 0 23-3.99999996 23zm-11.00307814 8h22v4h-22z" fill="#3d4145" mask="url(#g)"/></g></g></g></g></g></svg>

<?xml version="1.0" encoding="UTF-8"?><svg width="72px" height="72px" viewBox="0 0 72 72" version="1.1" xmlns="http://www.w3.org/2000/svg" xmlns:xlink="http://www.w3.org/1999/xlink"><defs><circle id="path-1" cx="36" cy="36" r="36"></circle><path d="M2.84217094e-14,-1.56319402e-13 L29,-1.56319402e-13 L32.1532462,1.57662312 C32.5237301,1.76186506 32.6738984,2.21236984 32.4886564,2.58285371 C32.3615154,2.83713586 32.1015296,2.99767165 31.8172336,2.99744327 L2.84217094e-14,2.97188436 L2.84217094e-14,-1.56319402e-13 Z" id="path-3"></path><rect id="path-5" x="0" y="0" width="72" height="72"></rect><path d="M10.8024361,56.4035209 C14.0345542,49.9377935 15.9347682,46.1366199 16.5030781,45 C17.5030781,43 18.0046172,42 18.0046172,40 C18.0046172,38 18.0046172,24.7261512 18.0046172,0.178453606 L0.00461720931,0.178453606 C0.00461720931,24.7261512 0.00461720931,38 0.00461720931,40 C0.00461720931,42 0.571078474,43 1.57107847,45 C2.13918376,46.1362106 4.02251898,49.9350559 7.22108414,56.3965361 L7.22107927,56.3965385 C7.71111171,57.3864621 8.91085309,57.7917038 9.90077663,57.3016714 C10.2911065,57.1084501 10.6076943,56.7930943 10.8024361,56.4035209 Z" id="path-7"></path></defs><g id="Plan/Free" stroke="none" stroke-width="1" fill="none" fill-rule="evenodd"><g id="plan"><mask id="mask-2" fill="white"><use xlink:href="#path-1"></use></mask><use id="bg" fill="#969CA1" fill-rule="nonzero" xlink:href="#path-1"></use><g id="line" mask="url(#mask-2)"><g transform="translate(-4.000000, 53.000000)"><mask id="mask-4" fill="white"><use xlink:href="#path-3"></use></mask><use id="line" stroke="none" fill="#B0B5B8" fill-rule="evenodd" xlink:href="#path-3"></use><rect id="line" stroke="none" fill="#CCCED0" fill-rule="evenodd" mask="url(#mask-4)" x="0" y="0" width="40" height="1"></rect></g></g><g id="icon" mask="url(#mask-2)"><g transform="translate(35.996922, 36.000000) rotate(30.000000) translate(-35.996922, -36.000000) translate(-0.003078, 0.000000)"><mask id="mask-6" fill="white"><use xlink:href="#path-5"></use></mask><g id="bounds" stroke="none" fill="none"></g><g id="pen" stroke="none" stroke-width="1" fill="none" fill-rule="evenodd" mask="url(#mask-6)"><g transform="translate(27.000000, -2.000000)"><mask id="mask-8" fill="white"><use xlink:href="#path-7"></use></mask><use id="bg" stroke="none" fill="#FFFFFF" fill-rule="evenodd" xlink:href="#path-7"></use><rect id="alt" stroke="none" fill="#E1E2E2" fill-rule="nonzero" mask="url(#mask-8)" x="-5" y="-2" width="28" height="44"></rect><rect id="alt" stroke="none" fill="#50575D" fill-rule="nonzero" mask="url(#mask-8)" x="-5" y="0" width="28" height="38"></rect><path d="M9.00307814,22 C5.00307814,22 5.00307814,11.7025492 5.00307814,-1 C5.00307814,-9.46836616 5.00307814,-17.1350328 5.00307814,-24 L13.0030781,-24 C13.0030781,-17.1350328 13.0030781,-9.46836616 13.0030781,-1 C13.0030781,11.7025492 13.0030781,22 9.00307814,22 Z M-2,30 L20,30 L20,34 L-2,34 L-2,30 Z" id="alt" stroke="none" fill="#3D4145" fill-rule="nonzero" mask="url(#mask-8)"></path></g></g></g></g></g></g></svg>
